svg/note_minus_outline.svg

<svg xmlns="http://www.w3.org/2000/svg" viewBox="0 0 24 24"><path d="M16 3H4c-1.11 0-2 .89-2 2v14a2 2 0 0 0 2 2h16c1.11 0 2-.89 2-2V9zm4 16H4V5h9v7h7zm-5-9V4.5l5.5 5.5zm-9 3h6v2H6z"/></svg>

<?xml version="1.0" encoding="UTF-8"?><!DOCTYPE svg PUBLIC "-//W3C//DTD SVG 1.1//EN" "http://www.w3.org/Graphics/SVG/1.1/DTD/svg11.dtd"><svg xmlns="http://www.w3.org/2000/svg" xmlns:xlink="http://www.w3.org/1999/xlink" version="1.1" id="mdi-note-minus-outline" width="24" height="24" viewBox="0 0 24 24"><path d="M16 3H4C2.89 3 2 3.89 2 5V19C2 20.1 2.89 21 4 21H20C21.11 21 22 20.11 22 19V9L16 3M20 19H4V5H13V12H20V19M15 10V4.5L20.5 10H15M6 13H12V15H6V13Z" /></svg>
